icons/1_Primary/Stripe.svg

<svg width="1024" height="1024" viewBox="0 0 1024 1024" fill="none" xmlns="http://www.w3.org/2000/svg">
<g clip-path="url(#clip0_2_3573)">
<path d="M512 1024C794.77 1024 1024 794.77 1024 512C1024 229.23 794.77 0 512 0C229.23 0 0 229.23 0 512C0 794.77 229.23 1024 512 1024Z" fill="#BD9AFF"/>
<path d="M781.669 515.75C781.669 477.4 763.089 447.13 727.589 447.13C692.089 447.13 670.359 477.39 670.359 515.45C670.359 560.54 695.829 583.32 732.359 583.32C750.189 583.32 763.669 579.32 773.859 573.58V543.58C763.669 548.67 751.989 551.82 737.159 551.82C722.629 551.82 709.739 546.73 708.099 529.05H781.359C781.369 527.13 781.669 519.34 781.669 515.75ZM707.669 501.52C707.669 484.59 718.009 477.52 727.449 477.52C736.589 477.52 746.329 484.52 746.329 501.52H707.669ZM612.529 447.13C601.6 447.089 591.079 451.278 583.169 458.82L581.219 449.53H548.219V624.21L585.669 616.27L585.819 573.87C591.209 577.77 599.149 583.31 612.339 583.31C639.159 583.31 663.579 561.74 663.579 514.25C663.459 470.8 638.739 447.13 612.529 447.13ZM603.529 550.35C594.689 550.35 589.449 547.2 585.849 543.35L585.699 487.77C589.599 483.43 594.989 480.43 603.529 480.43C617.159 480.43 626.599 495.71 626.599 515.34C626.609 535.37 617.319 550.35 603.539 550.35H603.529ZM496.719 438.29L534.319 430.2V399.79L496.719 407.73V438.29ZM496.719 449.68H534.319V580.77H496.719V449.68ZM456.419 460.76L453.999 449.68H421.659V580.76H459.109V491.92C467.949 480.38 482.929 482.48 487.569 484.13V449.68C482.789 447.88 465.259 444.58 456.419 460.76ZM381.509 417.17L344.999 425L344.849 545C344.849 567.17 361.479 583.5 383.649 583.5C395.929 583.5 404.919 581.25 409.869 578.56V548.11C405.079 550.06 381.409 556.95 381.409 534.78V481.59H409.869V449.68H381.359L381.509 417.17ZM280.239 487.73C280.239 481.89 285.029 479.64 292.969 479.64C305.929 479.912 318.647 483.195 330.119 489.23V454C318.303 449.345 305.699 447.013 292.999 447.13C262.589 447.13 242.359 463.01 242.359 489.53C242.359 530.88 299.289 524.29 299.289 542.11C299.289 549 293.289 551.25 284.909 551.25C272.479 551.25 256.589 546.16 244.009 539.25V574.91C256.923 580.498 270.838 583.404 284.909 583.45C316.069 583.45 337.489 568.02 337.489 541.2C337.319 496.57 280.239 504.51 280.239 487.73Z" fill="white"/>
</g>
<defs>
<clipPath id="clip0_2_3573">
<rect width="1024" height="1024" fill="white"/>
</clipPath>
</defs>
</svg>

<svg width="1024" height="1024" fill="none" xmlns="http://www.w3.org/2000/svg"><g clip-path="url(#a)"><path d="M512 1024c282.77 0 512-229.23 512-512S794.77 0 512 0 0 229.23 0 512s229.23 512 512 512Z" fill="#BD9AFF"/><path d="M781.669 515.75c0-38.35-18.58-68.62-54.08-68.62s-57.23 30.26-57.23 68.32c0 45.09 25.47 67.87 62 67.87 17.83 0 31.31-4 41.5-9.74v-30c-10.19 5.09-21.87 8.24-36.7 8.24-14.53 0-27.42-5.09-29.06-22.77h73.26c.01-1.92.31-9.71.31-13.3Zm-74-14.23c0-16.93 10.34-24 19.78-24 9.14 0 18.88 7 18.88 24h-38.66Zm-95.14-54.39a42.316 42.316 0 0 0-29.36 11.69l-1.95-9.29h-33v174.68l37.45-7.94.15-42.4c5.39 3.9 13.33 9.44 26.52 9.44 26.82 0 51.24-21.57 51.24-69.06-.12-43.45-24.84-67.12-51.05-67.12Zm-9 103.22c-8.84 0-14.08-3.15-17.68-7l-.15-55.58c3.9-4.34 9.29-7.34 17.83-7.34 13.63 0 23.07 15.28 23.07 34.91.01 20.03-9.28 35.01-23.06 35.01h-.01Zm-106.81-112.06 37.6-8.09v-30.41l-37.6 7.94v30.56Zm0 11.39h37.6v131.09h-37.6V449.68Zm-40.3 11.08-2.42-11.08h-32.34v131.08h37.45v-88.84c8.84-11.54 23.82-9.44 28.46-7.79v-34.45c-4.78-1.8-22.31-5.1-31.15 11.08Zm-74.91-43.59-36.51 7.83-.15 120c0 22.17 16.63 38.5 38.8 38.5 12.28 0 21.27-2.25 26.22-4.94v-30.45c-4.79 1.95-28.46 8.84-28.46-13.33v-53.19h28.46v-31.91h-28.51l.15-32.51Zm-101.27 70.56c0-5.84 4.79-8.09 12.73-8.09a83.558 83.558 0 0 1 37.15 9.59V454a98.79 98.79 0 0 0-37.12-6.87c-30.41 0-50.64 15.88-50.64 42.4 0 41.35 56.93 34.76 56.93 52.58 0 6.89-6 9.14-14.38 9.14-12.43 0-28.32-5.09-40.9-12v35.66a103.846 103.846 0 0 0 40.9 8.54c31.16 0 52.58-15.43 52.58-42.25-.17-44.63-57.25-36.69-57.25-53.47Z" fill="#fff"/></g><defs><clipPath id="a"><path fill="#fff" d="M0 0h1024v1024H0z"/></clipPath></defs></svg>
